svgs/sharp-light/trumpet.svg

<svg xmlns="http://www.w3.org/2000/svg" viewBox="0 0 640 512"><!--! Font Awesome Pro 6.6.0 by @fontawesome - https://fontawesome.com License - https://fontawesome.com/license (Commercial License) Copyright 2024 Fonticons, Inc. --><path d="M591.1 64l8.9 0 24 0 16 0 0 16 0 320 0 16-16 0-24 0-8.9 0-4.7-7.5s0 0 0 0s0 0 0 0s0 0 0 0s0 0 0 0l-.1-.2-.6-.9c-.5-.8-1.4-2.1-2.5-3.8c-2.3-3.3-5.7-8.1-10.1-13.8c-8.9-11.5-21.8-26.8-38-42.1c-32.9-31-77.1-59.7-127-59.7l-24 0 0 128 32 0c35.3 0 64-28.7 64-64c0-2.6-.2-5.2-.5-7.8c7 4.6 13.8 9.7 20.5 15.2c3.6 3 7.2 6.1 10.5 9.2C502.7 413.7 463.4 448 416 448l-32 0-32 0-48 0-32 0-48 0-32 0-32 0c-53 0-96-43-96-96c0-24.6 9.2-47 24.4-64L32 288l0 16L0 304l0-16 0-16 0-64 0-16 0-16 32 0 0 16 160 0 0-16 0-16 32 0 0 16 0 16 48 0 0-16 0-16 32 0 0 16 0 16 48 0 0-16 0-16 32 0 0 16 0 16 24 0c49.9 0 94.1-28.7 127-59.7c16.2-15.3 29.2-30.6 38-42.1c4.4-5.7 7.8-10.5 10.1-13.8c1.1-1.6 2-2.9 2.5-3.8l.6-.9 .1-.2s0 0 0 0s0 0 0 0s0 0 0 0s0 0 0 0l4.7-7.5zM160 256l32 0 32 0 48 0 32 0 48 0 10.7 0 21.3 0 24 0c62.1 0 113.9 35.3 149 68.3c17.8 16.7 31.8 33.4 41.5 45.9c3.9 5.1 7.1 9.5 9.6 13l0-286.5c-2.4 3.5-5.6 7.9-9.6 13c-9.6 12.5-23.7 29.2-41.5 45.9c-35.1 33-86.9 68.3-149 68.3l-24 0-32 0-48 0-32 0-48 0-32 0L32 224l0 32 128 0zm192 32l-48 0 0 128 48 0 0-128zM272 416l0-128-48 0 0 128 48 0zm-80 0l0-128-32 0c-35.3 0-64 28.7-64 64s28.7 64 64 64l32 0z"/></svg>

<svg xmlns="http://www.w3.org/2000/svg" viewBox="0 0 640 512"><!--! Font Awesome Pro 6.4.0 by @fontawesome - https://fontawesome.com License - https://fontawesome.com/license (Commercial License) Copyright 2023 Fonticons, Inc. --><path d="M591.1 64H600h24 16V80 400v16H624 600h-8.9l-4.7-7.5 0 0 0 0 0 0 0 0-.1-.2-.6-.9c-.5-.8-1.4-2.1-2.5-3.8c-2.3-3.3-5.7-8.1-10.1-13.8c-8.9-11.5-21.8-26.8-38-42.1c-32.9-31-77.1-59.7-127-59.7H384V416h32c35.3 0 64-28.7 64-64c0-2.6-.2-5.2-.5-7.8c7 4.6 13.8 9.7 20.5 15.2c3.6 3 7.2 6.1 10.5 9.2C502.7 413.7 463.4 448 416 448H384 352 304 272 224 192 160c-53 0-96-43-96-96c0-24.6 9.2-47 24.4-64H32v16H0V288 272 208 192 176H32v16H192V176 160h32v16 16h48V176 160h32v16 16h48V176 160h32v16 16h24c49.9 0 94.1-28.7 127-59.7c16.2-15.3 29.2-30.6 38-42.1c4.4-5.7 7.8-10.5 10.1-13.8c1.1-1.6 2-2.9 2.5-3.8l.6-.9 .1-.2 0 0 0 0 0 0 0 0 4.7-7.5zM160 256h32 32 48 32 48 10.7H384h24c62.1 0 113.9 35.3 149 68.3c17.8 16.7 31.8 33.4 41.5 45.9c3.9 5.1 7.1 9.5 9.6 13V96.8c-2.4 3.5-5.6 7.9-9.6 13c-9.6 12.5-23.7 29.2-41.5 45.9c-35.1 33-86.9 68.3-149 68.3H384 352 304 272 224 192 32v32H160zm192 32H304V416h48V288zM272 416V288H224V416h48zm-80 0V288H160c-35.3 0-64 28.7-64 64s28.7 64 64 64h32z"/></svg>
